X:59
T:Reel 59
M:4/4
K:Amaj
L:1/8
A2GA EDB,D|ECDB, G,A,B,G,|EA (3AGA EDB,^D|ECDB, EA,A,2:|A2EA EAcA|GABA GEDB,|A2EA EAcA|Beed BAA2|A2EA EAcA|GABc d2cd| (3edc  (3dcB cABA|GEDB, B,A,A,2|
